T:Ode to Joy
C:Ludwig van Beethoven
M:4/4
K:C
E E F G | G F E D | C C D E | E3 D |
E E F G | G F E D | C C D E | D3 C |
D D E C | D E F E C | D E F E D | C D G, |
E E F G | G F E D | C C D E | D3 C ||
